!!!COM: Joplin, Scott
!!!CDT: 1868/11/24/-1917/04/01/
!!!OTL: The Nonpareil
!!!ODT: 1907///
**kern	**kern	**dynam
*staff2	*staff1	*staff1/2
*Ipiano	*Ipiano	*Ipiano
*>[I,A,A1,A,A2,B,B1,B,B2,C,C1,C,C2,D,D1,D,D2]	*>[I,A,A1,A,A2,B,B1,B,B2,C,C1,C,C2,D,D1,D,D2]	*>[I,A,A1,A,A2,B,B1,B,B2,C,C1,C,C2,D,D1,D,D2]
*>I	*>I	*>I
=1-	=1-	=1-
*clefG2	*clefG2	*clefG2
*k[b-e-]	*k[b-e-]	*k[b-e-]
*M2/4	*M2/4	*M2/4
*MM90	*MM90	*MM90
16fLL	16ffLL	mf
16en	16een	.
16f	16ff	.
[16B-JJ	[16b-JJ	.
16B-LL]	16b-LL]	.
16d	16dd	.
16e-	16ee-	.
16fJJ	16ffJJ	.
=2	=2	=2
16gLL	16ggLL	.
16f#	16ff#	.
16g	16gg	.
[16cJJ	[16ccJJ	.
16cLL]	16ccLL]	.
16e-	16ee-	.
16fn	16ffn	.
16gJJ	16ggJJ	.
=3	=3	=3
16aLL	16cccLL	<
16g#J	16bbnJ	.
8aJ	8cccJ	.
*clefF4	*	*
8G^L GG	8cc^L b- en	.
8G-^J GG-	8cc^J b- e-	.
=4	=4	=4
4F^ FF	4cc^ a e-	f
4F^ FF	4ff^ ee- a f	.
=5!|:	=5!|:	=5!|:
*>A	*>A	*>A
*	*^	*
8CL	16ffLL	2a	mf
.	16ee-	.	.
8e-J A F	16dd	.	.
.	[16ccJJ	.	.
8FFL	16ccLL]	.	.
.	16dd	.	.
8e-J A F	16ee-	.	.
.	16ffJJ	.	.
=6	=6	=6	=6
8CL	[4gg [ee-	2a	.
8e-J A F	.	.	.
8FL FF	16gg]LL ee-]	.	.
.	16a	.	.
8E-J EE-	16cc	.	.
.	16ddJJ	.	.
=7	=7	=7	=7
8DL DD	16ccLL	2f	.
.	16b-	.	.
8dJ B- F	16a	.	.
.	16b-JJ	.	.
8FFL	16b-LL	.	.
.	16cc	.	.
8dJ B- F	16dd	.	.
.	16ee-JJ	.	.
=8	=8	=8	=8
8BB-L BBB-	[4ff	[4dd [b-	.
8dJ B- F	.	.	.
8DL DD	16ffLL]	8dd] b-]	.
.	16bb-	.	.
8dJ B- A- F	16aa	8r	.
.	16aa-JJ	.	.
*	*v	*v	*
=9	=9	=9
*^	*	*
8r	4E- EE-	16ggLL	.
.	.	16ee-	.
[8e- [B- [G	.	16b-	.
.	.	[16gJJ	.
4e-] B-] G]	8CL CC	16gLL]	.
.	.	16b-	.
.	8C#J CC#	16ee-	.
.	.	16ggJJ	.
*v	*v	*	*
=10	=10	=10
8DL DD	16ffLL	.
.	16dd	.
8dJ B- F	16b-	.
.	[16fJJ	.
8GGL	16fLL]	.
.	16b-	.
8dJ B- G	16cc	.
.	16ddJJ	.
=11	=11	=11
8CL CC	16eenLL	<
.	16gg	.
8enJ c B-	16bb-	.
.	[16cccJJ	.
8EnL EEn	16cccLL]	.
.	16cc	.
8eJ c B-	16b-	.
.	16ggJJ	.
=12	=12	=12
8FL FF	[4ff [a	.
BB-q	.	.
8C	.	.
8FFJ	16ff]LL a]	>
.	16a	.
8r	16cc	.
.	16ggJJ	.
=13	=13	=13
*	*^	*
8CL	16ffLL	2a	mf
.	16ee-	.	.
8e-J A F	16dd	.	.
.	[16ccJJ	.	.
8FFL	16ccLL]	.	.
.	16dd	.	.
8e-J A F	16ee-	.	.
.	16ffJJ	.	.
=14	=14	=14	=14
8CL	[4gg [ee-	2a	.
8e-J A F	.	.	.
8FL FF	16gg]LL ee-]	.	.
.	16a	.	.
8E-J EE-	16cc	.	.
.	16ddJJ	.	.
=15	=15	=15	=15
8DL DD	16ccLL	2f	.
.	16b-	.	.
8dJ B- F	16a	.	.
.	16b-JJ	.	.
8FFL	16b-LL	.	.
.	16cc	.	.
8dJ B- F	16dd	.	.
.	16ee-JJ	.	.
=16	=16	=16	=16
8BB-L BBB-	[4ff	[4dd [b-	.
8dJ B- F	.	.	.
8DL DD	16ffLL]	8dd] b-]	.
.	16dd	.	.
8dJ B- A- F	16f	8r	.
.	16ccJJ	.	.
*	*v	*v	*
=17	=17	=17
8E-L EE-	16b-LL	<
.	16g	.
8e-J B- G	16a	.
.	[16b-JJ	.
8EnL EEn	16b-LK]	.
.	8g	.
8c#J B- G	.	.
.	16aJk	.
=18	=18	=18
8FL FF	16b-LL	<
.	16g	.
8dJ B- F	16a	.
.	16b-JJ	.
8G-L GG-	16b-LL	.
.	16bb-	.
8c#J B- G-	16gg-	.
.	16cc#JJ	.
=19	=19	=19
8FL FF	16ddLL	f
.	16f	.
8dJ B- F	16g	.
.	[16b-JJ [en	.
8GL GG	8b-]L e]	.
8FJ FF	8ccJ a e-	.
=20	=20	=20
*>A1	*>A1	*>A1
8B-L BB-	[4b- [d	.
8F	.	.
8BB-J	16b-]LL d]	.
.	16f	.
8r	16b-	.
.	16ddJJ	.
=21:|!	=21:|!	=21:|!
*>A2	*>A2	*>A2
8B-L BB-	[4b- [d	.
8F	.	.
8BB-J	16b-]LL d]	.
.	16f	>
8r	16b-	.
.	16ddJJ	.
=22!|:	=22!|:	=22!|:
*>B	*>B	*>B
16E-LL	4gg ee- b- g	mf
16BB-	.	.
16C	.	.
16DJJ	.	.
16E-LL	4ee- b- g e-	.
16F	.	.
16G	.	.
16AJJ	.	.
=23	=23	=23
16B-LL	4.dd b- f d	<
16A	.	.
16B-	.	.
16cJJ	.	.
16B-LL	.	.
16F	.	.
16D	8ff b- f	.
16BB-JJ	.	.
=24	=24	=24
8FFL	8cccL ee- cc	<
8e-J A F	16bbnL dd bn	.
.	[16cccJJ ee- [cc	.
8AAL	16ccc]LL ee- cc]	.
.	16aaJ ee- a	.
8e-J A F	8ffJ ee- f	.
=25	=25	=25
8BB-L	8dddL ff dd	.
8dJ B- F	16ccc#L een cc#	.
.	[16dddJJ ff [dd	.
8DL	16ddd]LL ff dd]	>
.	16bb-J dd b-	.
8dJ B- F	8ffJ dd b- f	.
=26	=26	=26
16E-LL	4gg ee- b- g	mf
16BB-	.	.
16C	.	.
16DJJ	.	.
16E-LL	4ee- b- g e-	.
16F	.	.
16G	.	.
16AJJ	.	.
=27	=27	=27
16B-LL	4dd b- f d	.
16A	.	.
16B-	.	.
16AJJ	.	.
16GLL	4dd b- g d	.
16F#	.	.
16G	.	.
16DJJ	.	.
=28	=28	=28
8AL	16ff#LL f#	<
.	16cc	.
8dJ c	16dd	.
.	[16ff#JJ [f#	.
8DL	16ff#]LL f#]	.
.	16ddJ cc	.
8dJ c	8ff#J f#	.
=29	=29	=29
*	*^	*
16GLL	4gg dd b- g	4r	.
16B-	.	.	.
16A	.	.	.
16GJJ	.	.	.
8FL	16aa-LL ff dd	8b-L	>
.	16b-	.	.
8BB-J	16dd	8b-J a-	.
.	16ffJJ	.	.
*	*v	*v	*
=30	=30	=30
16E-LL	4gg ee- b- g	mf
16BB-	.	.
16C	.	.
16DJJ	.	.
16E-LL	4ee- b- g e-	.
16F	.	.
16G	.	.
16AJJ	.	.
=31	=31	=31
16B-LL	4.dd b- f d	<
16A	.	.
16B-	.	.
16cJJ	.	.
16B-LL	.	.
16F	.	.
16D	8ff b- f	.
16BB-JJ	.	.
=32	=32	=32
8FFL	8cccL ee- cc	<
8e-J A F	16bbnL dd bn	.
.	[16cccJJ ee- [cc	.
8AAL	16ccc]LL ee- cc]	.
.	16aaJ ee- a	.
8e-J A F	8ffJ ee- f	.
=33	=33	=33
8BB-L	8dddL ff dd	<
8dJ B- F	16ccc#L een cc#	.
.	[16dddJJ [ff [dd	.
8B-L BB-	16ddd]LL ff] dd]	.
.	16dddJ ff dd	.
8A-J AA-	8fffJ bb- ff	.
=34	=34	=34
*	*^	*
8GL GG	2bb-	16fffLL ff	f
.	.	16eee- ee-	.
8e-J B- G	.	16ddd dd	.
.	.	[16eee-JJ [ee-	.
8G-L GG-	.	16eee-]LL ee-]	.
.	.	16fffJ ff	.
8e-J B- G-	.	8eee-J ee-	.
=35	=35	=35	=35
8FL FF	2bb-	16eee-LL ee-	.
.	.	16ddd dd	.
8dJ B- F	.	16ccc# cc#	.
.	.	[16dddJJ [dd	.
8DL DD	.	16ddd]LL dd]	.
.	.	16eee-J ee-	.
8dJ B- F	.	8dddJ dd	.
*	*v	*v	*
=36	=36	=36
8FFL	16dddLL ff dd	.
.	16ccc ee- cc	.
8e-J A F	16bbn dd bn	.
.	[16cccJJ ee- [cc	.
8FFL	16ccc]LL ee- cc]	.
.	16eee-J ee-	.
8e-J A F	8fffJ ff	.
=37	=37	=37
*>B1	*>B1	*>B1
8B-L BB-	[4bb- [dd [b-	.
8FJ	.	.
8DL	16bb-]LL dd] b-]	>
.	16b-	.
8BB-J	16dd	.
.	16ffJJ	.
=38:|!	=38:|!	=38:|!
*>B2	*>B2	*>B2
8B-L BB-	4.bb- dd b-	.
8FJ	.	.
8BB-L	.	.
8A-J AA-	8ff dd b- f	.
=39	=39	=39
*>C	*>C	*>C
*k[b-e-a-]	*k[b-e-a-]	*k[b-e-a-]
16GLL GG	4ee- b- g e-	p
16F FF	.	.
16E- EE-	.	.
16DJJ DD	.	.
8CL CC	4gg ee- cc g	.
8BB-J BBB-	.	.
=40	=40	=40
*	*^	*
8AA-L AAA-	16ggLL g	2cc	.
.	16ff f	.	.
8cJ A- F	16aa- a-	.	.
.	[16cccJJ [cc	.	.
8AA-L AAA-	16ccc]LL cc]	.	.
.	16bb-J b-	.	.
8cJ A- F	8aa-J a-	.	.
=41	=41	=41	=41
8BB-L BBB-	16ggLL g	2dd	.
.	16ff f	.	.
8dJ A- F	16aa- a-	.	.
.	[16cccJJ [cc	.	.
8BB-L BBB-	16ccc]LL cc]	.	.
.	16bb-J b-	.	.
8dJ B- A-	8aa-J a-	.	.
*	*v	*v	*
=42	=42	=42
8E-L EE-	16ggLL ee- g	.
.	16eee- gg ee-	.
8e-J B- G	16ccc gg cc	.
.	[16bb-JJ [gg [dd [b-	.
8B-L BB-	16bb-]LL gg] dd] b-]	.
.	16ggJ ee- b- g	.
8A-J AA-	8ffJ dd b- f	.
=43	=43	=43
16GLL GG	4ee- b- g e-	.
16F FF	.	.
16E- EE-	.	.
16DJJ DD	.	.
8CL CC	4gg ee- cc g	.
8e-J c G	.	.
=44	=44	=44
8DL DD	16ggLL dd b- g	<
.	16eee- ee-	.
8dJ B- G	16ddd dd	.
.	[16bb-JJ [b-	.
8DL DD	16bb-]LL b-]	.
.	16aanJ an	.
8dJ B- G	8ggJ dd b- g	.
=45	=45	=45
8DL DD	16ff#LL dd cc f#	<
.	16eee- ee-	.
8dJ c F#	16ddd dd	.
.	[16cccJJ [cc	.
8DL DD	16ccc]LL cc]	.
.	16bb-J b-	.
8dJ c F#	8aanJ dd cc an	.
=46	=46	=46
8GL GG	4.gg dd b- g	.
16dL D	.	.
16cJJ C	.	.
8B-L BB-	.	.
8A-J AA-	8ff dd b- f	.
=47	=47	=47
16GLL GG	4ee- b- g e-	p
16F FF	.	.
16E- EE-	.	.
16DJJ DD	.	.
8CL CC	4gg ee- cc g	.
8BB-J BBB-	.	.
=48	=48	=48
*	*^	*
8AA-L AAA-	16ggLL g	2cc	.
.	16ff f	.	.
8cJ A- F	16aa- a-	.	.
.	[16cccJJ [cc	.	.
8AA-L AAA-	16ccc]LL cc]	.	.
.	16bb-J b-	.	.
8cJ A- F	8aa-J a-	.	.
=49	=49	=49	=49
8BB-L BBB-	16ggLL g	2dd	.
.	16ff f	.	.
8dJ A- F	16aa- a-	.	.
.	[16cccJJ [cc	.	.
8BB-L BBB-	16ccc]LL cc]	.	.
.	16bb-J b-	.	.
8dJ B- A-	8aa-J a-	.	.
*	*v	*v	*
=50	=50	=50
8E-L EE-	16ggLL ee- g	.
.	16aa- ff a-	.
8e-J B- G	16aan ff# an	.
.	[16bb-JJ [gg [b-	.
8E-L EE-	16bb-]LL gg] b-]	<
.	16bb-J gg b-	.
8DJ DD	8bbnJ gg ffn bn	.
=51	=51	=51
*	*^	*
*	*	*^	*
8CL CC	2gg	16cccLL cc	2een	<
*	*	*v	*v	*
.	.	16bn 16bbn	.
8enJ c B-	.	16cc 16ccc	.
.	.	[16dd- [16ddd-JJ	.
8EnL EEn	.	16dd-] 16ddd-LL]	.
.	.	16cc 16cccJ	.
8eJ c B-	.	8cc 8cccJ	.
=52	=52	=52	=52
8FL FF	16cccLL cc	4.ff 4.aa-	mf
.	16bbn bn	.	.
8fJ c A-	16ccc cc	.	.
.	[16ddd-JJ [dd-	.	.
8A-L AA-	16ddd-]LL dd-]	.	.
.	16cccJ cc	.	.
8AnJ AAn	8cccJ cc	8ee- 8ff#	.
*	*v	*v	*
=53	=53	=53
8B-L BB-	16cccLL gg ee- cc	.
.	16bb-	.
8e-J B- G	16gg	.
.	[16b-JJ	.
8BB-L BBB-	16b-LL]	.
.	16ggJ	.
8dJ B- A-	8ffJ dd a-	.
=54	=54	=54
*>C1	*>C1	*>C1
8E-L EE-	4.ee- b- g	>
8cJ C	.	.
8B-L BB-	.	.
8A-J AA-	8ff dd b- f	.
=55:|!	=55:|!	=55:|!
*>C2	*>C2	*>C2
8E-L EE-	4ee- b- g	.
8e-J B- G	.	.
8GL GG	8bb-L b-	.
8EnJ EEn	8bb-J b-	.
=56!|:	=56!|:	=56!|:
*>D	*>D	*>D
8FL FF	16bb-LL	f
.	16ddd	.
8dJ B- A-	16dd	.
.	16aa-JJ	.
8BB-L BBB-	16cccLK	.
.	8cc	.
8dJ B- A-	.	.
.	16ddJk	.
=57	=57	=57
8FL FF	16aa-LL	.
.	16b-	.
8dJ B- A-	16cc	.
.	[16ddJJ	.
8BB-L BBB-	16ddLL]	.
.	16ggJ	.
8dJ B- A-	8ffJ a-	.
=58	=58	=58
8E-L EE-	16ffLL g	.
.	16ee-	.
8e-J B- G	16g	.
.	[16b-JJ [g	.
8E-L EE-	16b-]LL g]	.
.	16ee-J	.
8e-J c An F#	8ccJ f#	.
=59	=59	=59
8E-L EE-	[4b- [g	.
8e-J B- G	.	.
8BB-L BBB-	16b-]LL g]	.
.	16b-	.
8e-J B- G	16ee-	.
.	16ggJJ	.
=60	=60	=60
8BB-L BBB-	16ffLL dd	.
.	16gg ee-	.
8dJ B- A-	16aa- ff	.
.	[16cccJJ [aa-	.
8DL DD	16ccc]LL aa-]	.
.	16bb-J gg	.
8dJ B- A-	8aa-J ff	.
=61	=61	=61
8BB-L BBB-	[4ff [dd	.
8dJ B- A-	.	.
8FL FF	16ff]LL dd]	.
.	16dd	.
8dJ B- A-	16ff	.
.	16aa-JJ	.
=62	=62	=62
8E-L EE-	16ggLL ee-	.
.	16aa- ff	.
8e-J B- G	16bb- gg	.
.	[16eee-JJ [gg	.
8BB-L BBB-	16eee-]LL gg]	.
.	16ccc	.
8e-J B- G	16bb-	.
.	16ee-JJ	.
=63	=63	=63
8E-L EE-	4gg ee-	.
8e-J B- G	.	.
8GL GG	8bb-L b-	.
8EnJ EEn	8bb-J b-	.
=64	=64	=64
8FL FF	16bb-LL	.
.	16ddd	.
8dJ B- A-	16dd	.
.	16aa-JJ	.
8BB-L BBB-	16cccLK	.
.	8cc	.
8dJ B- A-	.	.
.	16ddJk	.
=65	=65	=65
8FL FF	16aa-LL	.
.	16b-	.
8dJ B- A-	16cc	.
.	[16ddJJ	.
8BB-L BBB-	16ddLL]	.
.	16ggJ	.
8dJ B- A-	8ffJ a-	.
=66	=66	=66
8E-L EE-	16ffLL g	.
.	16ee-	.
8e-J B- G	16g	.
.	[16b-JJ [g	.
8BB-L BBB-	16b-]LL g]	.
.	16ee-	.
8e-J B- G	16ccc	.
.	16bb-JJ	.
=67	=67	=67
8E-L EE-	[4gg [ee-	.
8e-J B- G	.	.
8e-L E-	16gg]LL ee-]	.
.	16ee-	.
8d-J D-	16gg	.
.	16bb-JJ	.
=68	=68	=68
*	*^	*
8cL C	2ee-	16bb-LL b-	.
.	.	16aa- a-	.
8e-J c A-	.	16gg g	.
.	.	[16aa-JJ [a-	.
8c-L C-	.	16aa-]LL a-]	.
.	.	16bb-J b-	.
8e-J c- A-	.	8aa-J a-	.
=69	=69	=69	=69
8B-L BB-	2ee-	16aa-LL a-	.
.	.	16gg g	.
8e-J B- G	.	16ff# f#	.
.	.	[16ggJJ g	.
8GL GG	.	16gg]LL g	.
.	.	16aa-J a-	.
8e-J B- G	.	8ggJ g	.
*	*v	*v	*
=70	=70	=70
8BB-L BBB-	16ggLL b- g	.
.	16ff a- f	.
8dJ B- A-	16een g en	.
.	[16ffJJ a- [f	.
8BB-L BBB-	16ff]LL a- f]	.
.	16aa-J a-	.
8dJ B- A-	8bb-J b-	.
=71	=71	=71
*>D1	*>D1	*>D1
8E-L EE-	4ee- g e-	.
8B- G	.	.
8G GG	8bb-L b-	.
8EnJ EEn	8bb-J b-	.
=72:|!	=72:|!	=72:|!
*>D2	*>D2	*>D2
8E-L EE-	4ee- g e-	.
8BB-	.	.
8EE-J	8eee- gg ee-	.
8r	8r	.
==	==	==
*-	*-	*-
!!!ENC: Craig Stuart Sapp
!!!END: 2004/11/28
!!!EEV: 2018/06/01
